assets/icons/adobe_illustrator.svg

<svg width="15" height="15" viewBox="0 0 15 15" fill="none" xmlns="http://www.w3.org/2000/svg">
<path d="M0.240005 5.3417C0.240005 3.47194 0.240005 2.53705 0.603887 1.82289C0.923968 1.1947 1.43471 0.683963 2.0629 0.363881C2.77705 0 3.71194 0 5.5817 0H9.65831C11.5281 0 12.463 0 13.1771 0.363881C13.8053 0.683963 14.316 1.1947 14.6361 1.82289C15 2.53705 15 3.47194 15 5.3417V9.4183C15 11.2881 15 12.223 14.6361 12.9371C14.316 13.5653 13.8053 14.076 13.1771 14.3961C12.463 14.76 11.5281 14.76 9.65831 14.76H5.5817C3.71194 14.76 2.77705 14.76 2.0629 14.3961C1.43471 14.076 0.923968 13.5653 0.603887 12.9371C0.240005 12.223 0.240005 11.2881 0.240005 9.4183V5.3417Z" fill="#330000"/>
<path d="M7.3926 9.27576H5.10538L4.64002 10.7585C4.62711 10.8135 4.5764 10.8526 4.5212 10.8498H3.36272C3.29666 10.8498 3.27356 10.8126 3.29341 10.7381L5.2737 4.88862C5.29352 4.82768 5.31334 4.75831 5.33311 4.68045C5.35904 4.54492 5.37228 4.40723 5.37275 4.26917C5.36706 4.22837 5.4029 4.19233 5.44202 4.19805H7.01638C7.06251 4.19805 7.08886 4.21498 7.09556 4.24882L9.34324 10.7483C9.36301 10.816 9.34324 10.8499 9.28383 10.8498H7.9966C7.95148 10.855 7.90836 10.824 7.89761 10.7788L7.3926 9.27576ZM5.46184 7.99618H7.02629C6.76926 7.11785 6.47917 6.25107 6.24406 5.36594C5.9904 6.2526 5.71365 7.13567 5.46184 7.99618Z" fill="#FF9A00"/>
<path d="M10.6798 5.27449C10.5788 5.27865 10.4781 5.26089 10.3842 5.22241C10.2904 5.18393 10.2055 5.12552 10.1352 5.05109C10.0651 4.97339 10.0106 4.8823 9.97491 4.78293C9.93923 4.68362 9.92304 4.57803 9.92726 4.47223C9.92368 4.36749 9.94165 4.26317 9.98003 4.16604C10.0185 4.06892 10.0764 3.9812 10.1501 3.9086C10.223 3.83675 10.3092 3.78047 10.4035 3.74299C10.4978 3.70551 10.5985 3.68759 10.6996 3.69026C10.9373 3.69026 11.1237 3.76304 11.259 3.9086C11.3274 3.98424 11.3804 4.07296 11.4153 4.16968C11.4501 4.26638 11.466 4.36923 11.462 4.47223C11.4661 4.5784 11.4494 4.68441 11.4129 4.78382C11.3763 4.88324 11.3206 4.97412 11.2491 5.05109C11.1744 5.12663 11.0852 5.18545 10.9873 5.22394C10.8893 5.26236 10.7846 5.2796 10.6798 5.27449ZM9.99658 10.7482V5.89399C9.99658 5.83305 10.0229 5.80258 10.0758 5.80258H11.2937C11.3464 5.80258 11.3728 5.83305 11.3729 5.89399V10.7482C11.3729 10.816 11.3465 10.8499 11.2937 10.8498H10.0857C10.0263 10.8498 9.99658 10.816 9.99658 10.7482Z" fill="#FF9A00"/>
</svg>

<svg width="15" height="15" viewBox="0 0 15 15" fill="none" xmlns="http://www.w3.org/2000/svg"><path d="M.24 5.342c0-1.87 0-2.805.364-3.52A3.34 3.34 0 0 1 2.063.365C2.777 0 3.712 0 5.582 0h4.076c1.87 0 2.805 0 3.52.364a3.34 3.34 0 0 1 1.458 1.459C15 2.537 15 3.472 15 5.342v4.076c0 1.87 0 2.805-.364 3.52a3.34 3.34 0 0 1-1.459 1.458c-.714.364-1.649.364-3.519.364H5.582c-1.87 0-2.805 0-3.52-.364a3.34 3.34 0 0 1-1.458-1.459C.24 12.223.24 11.288.24 9.418V5.342z" fill="#330000"/><path d="M7.393 9.276H5.105l-.465 1.483a.118.118 0 0 1-.119.09H3.364c-.066 0-.09-.037-.07-.112l1.98-5.85c.02-.06.04-.13.06-.208a2.23 2.23 0 0 0 .04-.41c-.006-.042.03-.078.07-.072h1.573c.047 0 .073.017.08.05l2.247 6.5c.02.068 0 .102-.06.102H7.998a.093.093 0 0 1-.1-.071l-.504-1.504zm-1.931-1.28h1.564c-.257-.878-.547-1.745-.782-2.63-.254.887-.53 1.77-.782 2.63z" fill="#FF9A00"/><path d="M10.68 5.274a.703.703 0 0 1-.545-.223.808.808 0 0 1-.208-.578.763.763 0 0 1 .223-.563.762.762 0 0 1 .55-.22c.237 0 .424.073.56.219a.787.787 0 0 1 .202.562.814.814 0 0 1-.213.58.76.76 0 0 1-.57.222zm-.683 5.474V5.894c0-.06.026-.091.079-.091h1.218c.052 0 .079.03.079.09v4.855c0 .068-.026.102-.08.102h-1.207c-.06 0-.09-.034-.09-.102z" fill="#FF9A00"/></svg>
